svgs/thin/republican.svg

<svg xmlns="http://www.w3.org/2000/svg" viewBox="0 0 640 512"><!--! Font Awesome Pro 6.6.0 by @fontawesome - https://fontawesome.com License - https://fontawesome.com/license (Commercial License) Copyright 2024 Fonticons, Inc. --><path d="M0 168C0 92.9 60.9 32 136 32l240 0c75.1 0 136 60.9 136 136l0 112 0 64 0 8 0 24c0 13.3 10.7 24 24 24s24-10.7 24-24l0-64c0-22.1 17.9-40 40-40s40 17.9 40 40l0 64c0 57.4-46.6 104-104 104c-37.1 0-69.6-19.4-88-48.6l0 8.6c0 22.1-17.9 40-40 40l-80 0c-22.1 0-40-17.9-40-40l0-72-128 0 0 72c0 22.1-17.9 40-40 40l-80 0c-22.1 0-40-17.9-40-40L0 280 0 168zM496 288L16 288l0 152c0 13.3 10.7 24 24 24l80 0c13.3 0 24-10.7 24-24l0-80c0-4.4 3.6-8 8-8l144 0c4.4 0 8 3.6 8 8l0 80c0 13.3 10.7 24 24 24l80 0c13.3 0 24-10.7 24-24l0-64 0-8c0-4.4 3.6-8 8-8s8 3.6 8 8l0 8c0 48.6 39.4 88 88 88s88-39.4 88-88l0-64c0-13.3-10.7-24-24-24s-24 10.7-24 24l0 64c0 22.1-17.9 40-40 40s-40-17.9-40-40l0-24 0-8 0-56zm0-16l0-104c0-66.3-53.7-120-120-120L136 48C69.7 48 16 101.7 16 168l0 104 480 0zM136 128l0 24 24 0c4.4 0 8 3.6 8 8s-3.6 8-8 8l-24 0 0 24c0 4.4-3.6 8-8 8s-8-3.6-8-8l0-24-24 0c-4.4 0-8-3.6-8-8s3.6-8 8-8l24 0 0-24c0-4.4 3.6-8 8-8s8 3.6 8 8zm120-8c4.4 0 8 3.6 8 8l0 24 24 0c4.4 0 8 3.6 8 8s-3.6 8-8 8l-24 0 0 24c0 4.4-3.6 8-8 8s-8-3.6-8-8l0-24-24 0c-4.4 0-8-3.6-8-8s3.6-8 8-8l24 0 0-24c0-4.4 3.6-8 8-8zm136 8l0 24 24 0c4.4 0 8 3.6 8 8s-3.6 8-8 8l-24 0 0 24c0 4.4-3.6 8-8 8s-8-3.6-8-8l0-24-24 0c-4.4 0-8-3.6-8-8s3.6-8 8-8l24 0 0-24c0-4.4 3.6-8 8-8s8 3.6 8 8z"/></svg>

<svg xmlns="http://www.w3.org/2000/svg" viewBox="0 0 640 512"><!--! Font Awesome Pro 6.4.0 by @fontawesome - https://fontawesome.com License - https://fontawesome.com/license (Commercial License) Copyright 2023 Fonticons, Inc. --><path d="M0 168C0 92.9 60.9 32 136 32H376c75.1 0 136 60.9 136 136V280v64 8 24c0 13.3 10.7 24 24 24s24-10.7 24-24V312c0-22.1 17.9-40 40-40s40 17.9 40 40v64c0 57.4-46.6 104-104 104c-37.1 0-69.6-19.4-88-48.6V440c0 22.1-17.9 40-40 40H328c-22.1 0-40-17.9-40-40V368H160v72c0 22.1-17.9 40-40 40H40c-22.1 0-40-17.9-40-40V280 168zM496 288H16V440c0 13.3 10.7 24 24 24h80c13.3 0 24-10.7 24-24V360c0-4.4 3.6-8 8-8H296c4.4 0 8 3.6 8 8v80c0 13.3 10.7 24 24 24h80c13.3 0 24-10.7 24-24V376v-8c0-4.4 3.6-8 8-8s8 3.6 8 8v8c0 48.6 39.4 88 88 88s88-39.4 88-88V312c0-13.3-10.7-24-24-24s-24 10.7-24 24v64c0 22.1-17.9 40-40 40s-40-17.9-40-40V352v-8V288zm0-16V168c0-66.3-53.7-120-120-120H136C69.7 48 16 101.7 16 168V272H496zM136 128v24h24c4.4 0 8 3.6 8 8s-3.6 8-8 8H136v24c0 4.4-3.6 8-8 8s-8-3.6-8-8V168H96c-4.4 0-8-3.6-8-8s3.6-8 8-8h24V128c0-4.4 3.6-8 8-8s8 3.6 8 8zm120-8c4.4 0 8 3.6 8 8v24h24c4.4 0 8 3.6 8 8s-3.6 8-8 8H264v24c0 4.4-3.6 8-8 8s-8-3.6-8-8V168H224c-4.4 0-8-3.6-8-8s3.6-8 8-8h24V128c0-4.4 3.6-8 8-8zm136 8v24h24c4.4 0 8 3.6 8 8s-3.6 8-8 8H392v24c0 4.4-3.6 8-8 8s-8-3.6-8-8V168H352c-4.4 0-8-3.6-8-8s3.6-8 8-8h24V128c0-4.4 3.6-8 8-8s8 3.6 8 8z"/></svg>
